TV/Source/The Box.svg

<svg height="8.749948mm" viewBox="0 0 32.685249 31.003751" width="9.224504mm" xmlns="http://www.w3.org/2000/svg" xmlns:xlink="http://www.w3.org/1999/xlink"><clipPath id="a"><path d="m508.94 741.551h26.149v24.803h-26.149z"/></clipPath><g clip-path="url(#a)" transform="matrix(1.25 0 0 -1.25 -636.17563 957.9425)"><g transform="translate(526.5057 744.7888)"><path d="m0 0s-2.437-.706-2.574-.745c-.137-.04-.242-.061-.324-.068-.081-.01-.139-.006-.178.003-.042.008-.065.022-.077.034-.013.011-.016.022-.016.022l-.224.446c-.018.034-.045.061-.082.083-.037.019-.083.032-.136.038s-.116.004-.184-.004c-.068-.009-.143-.024-.224-.046-.08-.022-.168-.051-.259-.087-.09-.034-.186-.076-.283-.123-.099-.048-.2-.102-.302-.16-.102-.06-.205-.125-.31-.196l-1.369-.921s-.026-.019-.076-.05c-.049-.031-.123-.075-.216-.123-.094-.05-.208-.105-.339-.159-.132-.054-.281-.11-.447-.157-.167-.048-3.5-1.021-3.505-1.023-.004-.001-.007-.003-.007-.003s1.548 2.397 1.598 2.474c.085.133.184.254.283.358.1.107.2.197.289.271.09.073.169.13.225.168.057.038.09.059.09.059l1.667 1.023c.124.078.242.158.352.238s.211.162.305.242c.092.082.175.165.25.246.074.081.139.16.193.238.054.08.098.155.13.229.032.073.054.145.062.211.008.067.004.128-.013.185-.018.057-.05.109-.094.154l-.642.614s-.016.011-.032.039-.034.073-.038.138c-.004.066.006.153.044.266.038.115.106.257.218.43.066.103 2.468 3.852 2.472 3.855h.004l.001.003c.001.001 4.029.428 4.102.435.188.02.327.013.431-.01.104-.022.172-.059.217-.099.045-.039.068-.08.078-.112.013-.032.013-.053.013-.053l.096-.981c.007-.07.025-.129.059-.176.031-.05.074-.088.126-.113.053-.028.117-.046.187-.053.071-.006.15-.004.237.009s.181.036.28.068c.101.03.205.071.316.123.11.048.225.107.344.176.12.067.243.144.368.23l1.678 1.143s.033.024.091.061c.061.037.146.087.251.138.105.054.228.107.362.153.132.044.276.079.422.096.04.004 2.693.293 2.693.293s-2.698-2.989-2.774-3.073c-.128-.142-.251-.264-.365-.369-.114-.104-.218-.189-.306-.258s-.161-.12-.211-.153c-.051-.034-.079-.05-.079-.05l-1.436-.885c-.109-.067-.212-.136-.312-.208-.099-.07-.194-.142-.283-.215-.088-.073-.171-.146-.246-.219-.076-.071-.145-.144-.206-.213-.059-.07-.112-.136-.155-.201-.044-.064-.079-.124-.104-.181-.025-.056-.04-.109-.046-.157-.005-.047 0-.089.016-.125l.202-.466s.006-.008.007-.028c.003-.019-.001-.049-.016-.093-.015-.045-.043-.105-.094-.183-.052-.076-.124-.17-.228-.286z" fill="#ee2722"/></g><g transform="translate(514.6885 753.485)"><path d="m0 0-.954-2.071c-.062-.133-.106-.288-.132-.454-.026-.164-.035-.342-.029-.522.008-.179.031-.36.07-.534.04-.173.096-.339.166-.487.072-.149.154-.265.24-.349.087-.085.177-.136.268-.152.09-.016.18.003.265.058s.164.147.23.279l1.045 2.046c.074.145.127.314.16.498.035.185.048.385.041.584-.006.2-.034.401-.079.59-.047.188-.112.363-.196.516-.084.151-.179.264-.277.338-.096.073-.199.109-.298.107-.099-.003-.196-.041-.284-.116s-.168-.185-.236-.331m-2.436 4.557-.779-2.096c-.052-.136-.087-.288-.107-.448s-.027-.328-.02-.494c.007-.167.028-.333.061-.489.034-.154.083-.3.143-.427.061-.125.129-.219.202-.284.073-.063.149-.095.225-.093.075.001.15.034.221.101.069.067.134.167.189.301l.848 2.09c.06.148.102.314.129.492.026.177.036.365.028.548-.007.184-.03.366-.07.535-.04.166-.095.319-.165.447-.07.126-.149.214-.231.267-.081.053-.165.069-.247.051-.081-.017-.161-.07-.234-.154-.072-.084-.138-.2-.193-.347m-3.312-3.929 2.682 7.968c.174.528.387.97.624 1.316.241.355.509.611.787.755.283.149.576.181.862.083.291-.098.575-.333.827-.715.135-.204.255-.438.357-.697.104-.261.191-.545.262-.85.071-.306.125-.628.161-.963s.054-.679.056-1.03c.003-.096.01-.188.022-.276.013-.087.029-.171.049-.248.02-.079.043-.151.071-.217.026-.067.058-.127.091-.18.028-.045.058-.085.09-.121.033-.035.066-.066.101-.09.037-.026.074-.045.114-.058.038-.014.077-.022.12-.024.192.076.39.115.589.115.202 0 .406-.04.605-.122.204-.084.404-.21.598-.381.196-.173.384-.393.561-.659.328-.494.581-1.099.756-1.771.176-.675.269-1.41.28-2.15.008-.737-.065-1.475-.222-2.161-.153-.678-.386-1.299-.694-1.819 0 0-4.577-7.693-4.579-7.696.002.004-5.169 11.992-5.17 11.991" fill="#ee2722"/></g><g transform="translate(523.0747 763.0366)"><path d="m0 0c-.166.016-.304.006-.41-.028-.108-.033-.185-.09-.227-.166-.043-.077-.05-.171-.021-.282.031-.113.099-.239.208-.376l1.71-2.142c.122-.151.274-.297.444-.432.171-.134.36-.259.556-.361.197-.104.399-.19.595-.249.195-.06.383-.094.551-.097.169-.003.303.026.401.079.096.053.156.129.181.225.024.094.012.207-.037.332-.047.126-.132.261-.255.405l-1.736 2.046c-.11.131-.247.258-.401.375-.153.118-.323.226-.498.318-.176.094-.357.175-.538.233-.18.062-.357.103-.523.12m2.52-7.93c-.615-.039-1.165-.027-1.67.05-.511.079-.971.224-1.403.449s-.83.53-1.22.924c-.385.39-.757.863-1.141 1.429l-1.766 2.595-1.362 2.004-1.41 2.071c-.281.413-.462.742-.536.996-.074.251-.046.43.093.548.135.117.378.175.731.181.348.006.804-.036 1.37-.119l6.81-.989c.41-.059.756-.125 1.064-.208.306-.083.577-.185.835-.318.258-.132.506-.296.77-.504.264-.211.545-.465.866-.783.016-.015 2.506-2.669 2.506-2.669l2.598-2.776c.402-.43.71-.79.92-1.089.214-.305.327-.545.337-.735.01-.193-.086-.331-.289-.429-.207-.1-.526-.155-.961-.183z" fill="#ee2722"/></g></g></svg>

<?xml version="1.0" encoding="UTF-8" standalone="no"?>
<!-- Created with Inkscape (http://www.inkscape.org/) -->

<svg
   xmlns:dc="http://purl.org/dc/elements/1.1/"
   xmlns:cc="http://creativecommons.org/ns#"
   xmlns:rdf="http://www.w3.org/1999/02/22-rdf-syntax-ns#"
   xmlns:svg="http://www.w3.org/2000/svg"
   xmlns="http://www.w3.org/2000/svg"
   xmlns:sodipodi="http://sodipodi.sourceforge.net/DTD/sodipodi-0.dtd"
   xmlns:inkscape="http://www.inkscape.org/namespaces/inkscape"
   width="9.2245035mm"
   height="8.7499475mm"
   viewBox="0 0 32.685249 31.003751"
   id="svg312380"
   version="1.1"
   inkscape:version="0.91 r13725"
   sodipodi:docname="The Box.svg">
  <defs
     id="defs312382">
    <clipPath
       clipPathUnits="userSpaceOnUse"
       id="clipPath71632">
      <path
         d="m 508.94,741.551 26.149,0 0,24.803 -26.149,0 0,-24.803 z"
         id="path71634"
         inkscape:connector-curvature="0" />
    </clipPath>
  </defs>
  <sodipodi:namedview
     id="base"
     pagecolor="#ffffff"
     bordercolor="#666666"
     borderopacity="1.0"
     inkscape:pageopacity="0.0"
     inkscape:pageshadow="2"
     inkscape:zoom="0.35"
     inkscape:cx="-238.65737"
     inkscape:cy="38.359045"
     inkscape:document-units="px"
     inkscape:current-layer="layer1"
     showgrid="false"
     fit-margin-top="0"
     fit-margin-left="0"
     fit-margin-right="0"
     fit-margin-bottom="0"
     inkscape:window-width="1920"
     inkscape:window-height="1017"
     inkscape:window-x="-8"
     inkscape:window-y="-8"
     inkscape:window-maximized="1" />
  <metadata
     id="metadata312385">
    <rdf:RDF>
      <cc:Work
         rdf:about="">
        <dc:format>image/svg+xml</dc:format>
        <dc:type
           rdf:resource="http://purl.org/dc/dcmitype/StillImage" />
        <dc:title></dc:title>
      </cc:Work>
    </rdf:RDF>
  </metadata>
  <g
     inkscape:label="Layer 1"
     inkscape:groupmode="layer"
     id="layer1"
     transform="translate(-186.51452,-539.7175)">
    <g
       transform="matrix(1.25,0,0,-1.25,-449.66111,1497.66)"
       id="g71628">
      <g
         id="g71630"
         clip-path="url(#clipPath71632)">
        <g
           id="g71636"
           transform="translate(526.5057,744.7888)">
          <path
             d="m 0,0 c 0,0 -2.437,-0.706 -2.574,-0.745 -0.137,-0.04 -0.242,-0.061 -0.324,-0.068 -0.081,-0.01 -0.139,-0.006 -0.178,0.003 -0.042,0.008 -0.065,0.022 -0.077,0.034 -0.013,0.011 -0.016,0.022 -0.016,0.022 l -0.224,0.446 c -0.018,0.034 -0.045,0.061 -0.082,0.083 -0.037,0.019 -0.083,0.032 -0.136,0.038 -0.053,0.006 -0.116,0.004 -0.184,-0.004 -0.068,-0.009 -0.143,-0.024 -0.224,-0.046 -0.08,-0.022 -0.168,-0.051 -0.259,-0.087 -0.09,-0.034 -0.186,-0.076 -0.283,-0.123 -0.099,-0.048 -0.2,-0.102 -0.302,-0.16 -0.102,-0.06 -0.205,-0.125 -0.31,-0.196 l -1.369,-0.921 c 0,0 -0.026,-0.019 -0.076,-0.05 -0.049,-0.031 -0.123,-0.075 -0.216,-0.123 -0.094,-0.05 -0.208,-0.105 -0.339,-0.159 -0.132,-0.054 -0.281,-0.11 -0.447,-0.157 -0.167,-0.048 -3.5,-1.021 -3.505,-1.023 -0.004,-10e-4 -0.007,-0.003 -0.007,-0.003 0,0 1.548,2.397 1.598,2.474 0.085,0.133 0.184,0.254 0.283,0.358 0.1,0.107 0.2,0.197 0.289,0.271 0.09,0.073 0.169,0.13 0.225,0.168 0.057,0.038 0.09,0.059 0.09,0.059 l 1.667,1.023 c 0.124,0.078 0.242,0.158 0.352,0.238 0.11,0.08 0.211,0.162 0.305,0.242 0.092,0.082 0.175,0.165 0.25,0.246 0.074,0.081 0.139,0.16 0.193,0.238 0.054,0.08 0.098,0.155 0.13,0.229 0.032,0.073 0.054,0.145 0.062,0.211 0.008,0.067 0.004,0.128 -0.013,0.185 -0.018,0.057 -0.05,0.109 -0.094,0.154 l -0.642,0.614 c 0,0 -0.016,0.011 -0.032,0.039 -0.016,0.028 -0.034,0.073 -0.038,0.138 -0.004,0.066 0.006,0.153 0.044,0.266 0.038,0.115 0.106,0.257 0.218,0.43 0.066,0.103 2.468,3.852 2.472,3.855 l 0.004,0 0.001,0.003 C -3.767,8.203 0.261,8.63 0.334,8.637 0.522,8.657 0.661,8.65 0.765,8.627 0.869,8.605 0.937,8.568 0.982,8.528 1.027,8.489 1.05,8.448 1.06,8.416 1.073,8.384 1.073,8.363 1.073,8.363 L 1.169,7.382 C 1.176,7.312 1.194,7.253 1.228,7.206 1.259,7.156 1.302,7.118 1.354,7.093 1.407,7.065 1.471,7.047 1.541,7.04 1.612,7.034 1.691,7.036 1.778,7.049 c 0.087,0.013 0.181,0.036 0.28,0.068 0.101,0.03 0.205,0.071 0.316,0.123 0.11,0.048 0.225,0.107 0.344,0.176 0.12,0.067 0.243,0.144 0.368,0.23 l 1.678,1.143 c 0,0 0.033,0.024 0.091,0.061 C 4.916,8.887 5.001,8.937 5.106,8.988 5.211,9.042 5.334,9.095 5.468,9.141 5.6,9.185 5.744,9.22 5.89,9.237 5.93,9.241 8.583,9.53 8.583,9.53 8.583,9.53 5.885,6.541 5.809,6.457 5.681,6.315 5.558,6.193 5.444,6.088 5.33,5.984 5.226,5.899 5.138,5.83 5.05,5.761 4.977,5.71 4.927,5.677 4.876,5.643 4.848,5.627 4.848,5.627 L 3.412,4.742 C 3.303,4.675 3.2,4.606 3.1,4.534 3.001,4.464 2.906,4.392 2.817,4.319 2.729,4.246 2.646,4.173 2.571,4.1 2.495,4.029 2.426,3.956 2.365,3.887 2.306,3.817 2.253,3.751 2.21,3.686 2.166,3.622 2.131,3.562 2.106,3.505 2.081,3.449 2.066,3.396 2.06,3.348 2.055,3.301 2.06,3.259 2.076,3.223 L 2.278,2.757 c 0,0 0.006,-0.008 0.007,-0.028 C 2.288,2.71 2.284,2.68 2.269,2.636 2.254,2.591 2.226,2.531 2.175,2.453 2.123,2.377 2.051,2.283 1.947,2.167 L 0,0 Z"
             style="fill:#ee2722;fill-opacity:1;fill-rule:nonzero;stroke:none"
             id="path71638"
             inkscape:connector-curvature="0" />
        </g>
        <g
           id="g71640"
           transform="translate(514.6885,753.485)">
          <path
             d="m 0,0 -0.954,-2.071 c -0.062,-0.133 -0.106,-0.288 -0.132,-0.454 -0.026,-0.164 -0.035,-0.342 -0.029,-0.522 0.008,-0.179 0.031,-0.36 0.07,-0.534 0.04,-0.173 0.096,-0.339 0.166,-0.487 0.072,-0.149 0.154,-0.265 0.24,-0.349 0.087,-0.085 0.177,-0.136 0.268,-0.152 0.09,-0.016 0.18,0.003 0.265,0.058 0.085,0.055 0.164,0.147 0.23,0.279 l 1.045,2.046 c 0.074,0.145 0.127,0.314 0.16,0.498 0.035,0.185 0.048,0.385 0.041,0.584 -0.006,0.2 -0.034,0.401 -0.079,0.59 C 1.244,-0.326 1.179,-0.151 1.095,0.002 1.011,0.153 0.916,0.266 0.818,0.34 0.722,0.413 0.619,0.449 0.52,0.447 0.421,0.444 0.324,0.406 0.236,0.331 0.148,0.256 0.068,0.146 0,0 M -2.436,4.557 -3.215,2.461 C -3.267,2.325 -3.302,2.173 -3.322,2.013 -3.342,1.853 -3.349,1.685 -3.342,1.519 -3.335,1.352 -3.314,1.186 -3.281,1.03 c 0.034,-0.154 0.083,-0.3 0.143,-0.427 0.061,-0.125 0.129,-0.219 0.202,-0.284 0.073,-0.063 0.149,-0.095 0.225,-0.093 0.075,0.001 0.15,0.034 0.221,0.101 0.069,0.067 0.134,0.167 0.189,0.301 l 0.848,2.09 c 0.06,0.148 0.102,0.314 0.129,0.492 0.026,0.177 0.036,0.365 0.028,0.548 -0.007,0.184 -0.03,0.366 -0.07,0.535 C -1.406,4.459 -1.461,4.612 -1.531,4.74 -1.601,4.866 -1.68,4.954 -1.762,5.007 -1.843,5.06 -1.927,5.076 -2.009,5.058 -2.09,5.041 -2.17,4.988 -2.243,4.904 -2.315,4.82 -2.381,4.704 -2.436,4.557 m -3.312,-3.929 2.682,7.968 c 0.174,0.528 0.387,0.97 0.624,1.316 0.241,0.355 0.509,0.611 0.787,0.755 0.283,0.149 0.576,0.181 0.862,0.083 0.291,-0.098 0.575,-0.333 0.827,-0.715 C 0.169,9.831 0.289,9.597 0.391,9.338 0.495,9.077 0.582,8.793 0.653,8.488 0.724,8.182 0.778,7.86 0.814,7.525 0.85,7.19 0.868,6.846 0.87,6.495 0.873,6.399 0.88,6.307 0.892,6.219 0.905,6.132 0.921,6.048 0.941,5.971 0.961,5.892 0.984,5.82 1.012,5.754 1.038,5.687 1.07,5.627 1.103,5.574 1.131,5.529 1.161,5.489 1.193,5.453 1.226,5.418 1.259,5.387 1.294,5.363 1.331,5.337 1.368,5.318 1.408,5.305 1.446,5.291 1.485,5.283 1.528,5.281 1.72,5.357 1.918,5.396 2.117,5.396 2.319,5.396 2.523,5.356 2.722,5.274 2.926,5.19 3.126,5.064 3.32,4.893 3.516,4.72 3.704,4.5 3.881,4.234 4.209,3.74 4.462,3.135 4.637,2.463 4.813,1.788 4.906,1.053 4.917,0.313 4.925,-0.424 4.852,-1.162 4.695,-1.848 4.542,-2.526 4.309,-3.147 4.001,-3.667 c 0,0 -4.577,-7.693 -4.579,-7.696 0.002,0.004 -5.169,11.992 -5.17,11.991"
             style="fill:#ee2722;fill-opacity:1;fill-rule:nonzero;stroke:none"
             id="path71642"
             inkscape:connector-curvature="0" />
        </g>
        <g
           id="g71644"
           transform="translate(523.0747,763.0366)">
          <path
             d="m 0,0 c -0.166,0.016 -0.304,0.006 -0.41,-0.028 -0.108,-0.033 -0.185,-0.09 -0.227,-0.166 -0.043,-0.077 -0.05,-0.171 -0.021,-0.282 0.031,-0.113 0.099,-0.239 0.208,-0.376 l 1.71,-2.142 c 0.122,-0.151 0.274,-0.297 0.444,-0.432 0.171,-0.134 0.36,-0.259 0.556,-0.361 0.197,-0.104 0.399,-0.19 0.595,-0.249 0.195,-0.06 0.383,-0.094 0.551,-0.097 0.169,-0.003 0.303,0.026 0.401,0.079 0.096,0.053 0.156,0.129 0.181,0.225 C 4.012,-3.735 4,-3.622 3.951,-3.497 3.904,-3.371 3.819,-3.236 3.696,-3.092 L 1.96,-1.046 C 1.85,-0.915 1.713,-0.788 1.559,-0.671 1.406,-0.553 1.236,-0.445 1.061,-0.353 0.885,-0.259 0.704,-0.178 0.523,-0.12 0.343,-0.058 0.166,-0.017 0,0 m 2.52,-7.93 c -0.615,-0.039 -1.165,-0.027 -1.67,0.05 -0.511,0.079 -0.971,0.224 -1.403,0.449 -0.432,0.225 -0.83,0.53 -1.22,0.924 -0.385,0.39 -0.757,0.863 -1.141,1.429 l -1.766,2.595 -1.362,2.004 -1.41,2.071 c -0.281,0.413 -0.462,0.742 -0.536,0.996 -0.074,0.251 -0.046,0.43 0.093,0.548 0.135,0.117 0.378,0.175 0.731,0.181 0.348,0.006 0.804,-0.036 1.37,-0.119 L 1.016,2.209 C 1.426,2.15 1.772,2.084 2.08,2.001 2.386,1.918 2.657,1.816 2.915,1.683 3.173,1.551 3.421,1.387 3.685,1.179 3.949,0.968 4.23,0.714 4.551,0.396 4.567,0.381 7.057,-2.273 7.057,-2.273 l 2.598,-2.776 c 0.402,-0.43 0.71,-0.79 0.92,-1.089 0.214,-0.305 0.327,-0.545 0.337,-0.735 0.01,-0.193 -0.086,-0.331 -0.289,-0.429 -0.207,-0.1 -0.526,-0.155 -0.961,-0.183 L 2.52,-7.93 Z"
             style="fill:#ee2722;fill-opacity:1;fill-rule:nonzero;stroke:none"
             id="path71646"
             inkscape:connector-curvature="0" />
        </g>
      </g>
    </g>
  </g>
</svg>
